X:3002
T:Sv\"ardsj\"opolska
C:anon.
O:Sweden
R:Polska
Z:Transcribed by Frank Nordberg - http://www.musicaviva.com
F:http://abc.musicaviva.com/tunes/sweden/svardsjopolska.abc
M:3/4
L:1/8
K:D
"D"f2 d z (3FG^G|"D"A2 F>E (3A,DF|"A7"A2 G>E (3CEG|"D"B2 A>F D2|
"D"f2 d z (3FG^G|"D"A2 F>E (3A,DF|"A7"A2 G>E C>E|"D"D2 d z z2:|
K:A
|:"A"(3EFE ^DE =DE|"A"CE Ac e2|"E"(3efe dB GB|"D"(3ded "A"cB A2|
"A"(3EFE ^DE =DE|"A"CE Ac e2|"E"(3efe dB GB|"A"A2 a z z2:|
W:
W:
W:  From Musica Viva - http://www.musicaviva.com
W:  the Internet center for free sheet music downloads.


